public/SandLoading.svg

<svg width="128" height="20" viewBox="0 0 128 20" fill="none" xmlns="http://www.w3.org/2000/svg">
<path fill-rule="evenodd" clip-rule="evenodd" d="M8.1675 11.3689C8.95367 10.6182 8.95367 9.3818 8.1675 8.6311L8.06007 8.5286C6.04496 6.60535 4.48833 5.12024 4.01909 2.00732C3.85307 0.90967 4.79349 0 5.92533 0H10.5H15.0747C16.2065 0 17.1469 0.90967 16.9809 2.00732C16.5117 5.12024 14.955 6.60535 12.9399 8.5286L12.8325 8.6311C12.0463 9.3818 12.0463 10.6182 12.8325 11.3689L12.9399 11.4714C14.955 13.3947 16.5117 14.8798 16.9809 17.9927C17.1469 19.0903 16.2065 20 15.0747 20H10.5H5.92533C4.79349 20 3.85307 19.0903 4.01909 17.9927C4.48833 14.8798 6.04496 13.3947 8.06007 11.4714L8.1675 11.3689ZM8.85057 13.0665L8.84327 13.0728C7.30764 14.4459 6.16506 15.4681 6.01615 17.9963C6.00687 18.1519 6.07425 18.2915 6.18411 18.384C6.26956 18.4564 6.38137 18.5 6.50344 18.5H10.5H14.496C14.6401 18.5 14.77 18.4392 14.8593 18.3422C14.9428 18.2518 14.9912 18.13 14.9833 17.9963C14.8344 15.4681 13.6918 14.4459 12.1567 13.0728C11.7504 12.7096 11.3169 12.3218 10.8672 11.8751C10.6646 11.6738 10.335 11.6738 10.1324 11.8751C9.68506 12.3192 9.25396 12.7052 8.85057 13.0665Z" fill="black" fill-opacity="0.32"/>
<path d="M33.088 18.52V6.936H34.528L34.688 8.184C34.8587 7.93867 35.072 7.70933 35.328 7.496C35.584 7.272 35.888 7.09067 36.24 6.952C36.6027 6.81333 37.024 6.744 37.504 6.744C38.272 6.744 38.944 6.93067 39.52 7.304C40.1067 7.67733 40.56 8.184 40.88 8.824C41.2107 9.45333 41.376 10.1733 41.376 10.984C41.376 11.7947 41.2107 12.52 40.88 13.16C40.5493 13.7893 40.0907 14.2853 39.504 14.648C38.928 15.0107 38.256 15.192 37.488 15.192C36.8587 15.192 36.304 15.0693 35.824 14.824C35.344 14.568 34.9653 14.216 34.688 13.768V18.52H33.088ZM37.232 13.8C37.7227 13.8 38.1547 13.6827 38.528 13.448C38.912 13.2133 39.2107 12.8827 39.424 12.456C39.648 12.0293 39.76 11.5333 39.76 10.968C39.76 10.4027 39.648 9.912 39.424 9.496C39.2107 9.06933 38.912 8.73867 38.528 8.504C38.1547 8.25867 37.7227 8.136 37.232 8.136C36.7307 8.136 36.288 8.25867 35.904 8.504C35.5307 8.73867 35.2373 9.06933 35.024 9.496C34.8107 9.912 34.704 10.4027 34.704 10.968C34.704 11.5333 34.8107 12.0293 35.024 12.456C35.2373 12.8827 35.5307 13.2133 35.904 13.448C36.288 13.6827 36.7307 13.8 37.232 13.8ZM43.2443 15V3.48H44.8443V15H43.2443ZM50.6891 15.192C49.9211 15.192 49.2385 15.016 48.6411 14.664C48.0438 14.312 47.5745 13.8213 47.2331 13.192C46.9025 12.5627 46.7371 11.832 46.7371 11C46.7371 10.1467 46.9025 9.40533 47.2331 8.776C47.5745 8.136 48.0438 7.64 48.6411 7.288C49.2385 6.92533 49.9318 6.744 50.7211 6.744C51.5105 6.744 52.1878 6.92 52.7531 7.272C53.3185 7.624 53.7558 8.09333 54.0651 8.68C54.3745 9.256 54.5291 9.896 54.5291 10.6C54.5291 10.7067 54.5238 10.824 54.5131 10.952C54.5131 11.0693 54.5078 11.2027 54.4971 11.352H47.9051V10.216H52.9291C52.8971 9.544 52.6731 9.02133 52.2571 8.648C51.8411 8.264 51.3238 8.072 50.7051 8.072C50.2678 8.072 49.8678 8.17333 49.5051 8.376C49.1425 8.568 48.8491 8.856 48.6251 9.24C48.4118 9.61333 48.3051 10.088 48.3051 10.664V11.112C48.3051 11.7093 48.4118 12.216 48.6251 12.632C48.8491 13.0373 49.1425 13.3467 49.5051 13.56C49.8678 13.7627 50.2625 13.864 50.6891 13.864C51.2011 13.864 51.6225 13.752 51.9531 13.528C52.2838 13.304 52.5291 13 52.6891 12.616H54.2891C54.1505 13.1067 53.9158 13.5493 53.5851 13.944C53.2545 14.328 52.8438 14.632 52.3531 14.856C51.8731 15.08 51.3185 15.192 50.6891 15.192ZM58.9788 15.192C58.3174 15.192 57.7681 15.08 57.3307 14.856C56.8934 14.632 56.5681 14.3333 56.3548 13.96C56.1414 13.576 56.0348 13.1653 56.0348 12.728C56.0348 12.1947 56.1734 11.7413 56.4508 11.368C56.7281 10.984 57.1228 10.6907 57.6348 10.488C58.1468 10.2853 58.7601 10.184 59.4748 10.184H61.5708C61.5708 9.71467 61.5014 9.32533 61.3628 9.016C61.2241 8.70667 61.0161 8.47733 60.7388 8.328C60.4721 8.168 60.1308 8.088 59.7148 8.088C59.2348 8.088 58.8241 8.20533 58.4828 8.44C58.1414 8.664 57.9281 9 57.8428 9.448H56.2428C56.3068 8.88267 56.4988 8.40267 56.8188 8.008C57.1494 7.60267 57.5708 7.29333 58.0828 7.08C58.5948 6.856 59.1388 6.744 59.7148 6.744C60.4721 6.744 61.1068 6.87733 61.6188 7.144C62.1308 7.41067 62.5148 7.78933 62.7708 8.28C63.0374 8.76 63.1708 9.336 63.1708 10.008V15H61.7788L61.6508 13.64C61.5334 13.8533 61.3948 14.056 61.2348 14.248C61.0748 14.44 60.8828 14.6053 60.6588 14.744C60.4454 14.8827 60.1948 14.9893 59.9068 15.064C59.6294 15.1493 59.3201 15.192 58.9788 15.192ZM59.2828 13.896C59.6241 13.896 59.9334 13.8267 60.2108 13.688C60.4881 13.5493 60.7228 13.3627 60.9148 13.128C61.1174 12.8827 61.2668 12.6107 61.3628 12.312C61.4694 12.0027 61.5281 11.688 61.5388 11.368V11.32H59.6348C59.1761 11.32 58.8028 11.3787 58.5148 11.496C58.2374 11.6027 58.0348 11.752 57.9068 11.944C57.7788 12.136 57.7148 12.36 57.7148 12.616C57.7148 12.8827 57.7734 13.112 57.8908 13.304C58.0188 13.4853 58.2001 13.6293 58.4348 13.736C58.6694 13.8427 58.9521 13.896 59.2828 13.896ZM68.333 15.192C67.6503 15.192 67.053 15.08 66.541 14.856C66.029 14.632 65.6237 14.3173 65.325 13.912C65.0263 13.5067 64.845 13.032 64.781 12.488H66.413C66.4663 12.744 66.5677 12.9787 66.717 13.192C66.877 13.4053 67.0903 13.576 67.357 13.704C67.6343 13.832 67.9597 13.896 68.333 13.896C68.685 13.896 68.973 13.848 69.197 13.752C69.4317 13.6453 69.6023 13.5067 69.709 13.336C69.8157 13.1547 69.869 12.9627 69.869 12.76C69.869 12.4613 69.7943 12.2373 69.645 12.088C69.5063 11.928 69.293 11.8053 69.005 11.72C68.7277 11.624 68.3917 11.5387 67.997 11.464C67.6237 11.4 67.261 11.3147 66.909 11.208C66.5677 11.0907 66.2583 10.9467 65.981 10.776C65.7143 10.6053 65.501 10.392 65.341 10.136C65.181 9.86933 65.101 9.544 65.101 9.16C65.101 8.70133 65.2237 8.29067 65.469 7.928C65.7143 7.55467 66.061 7.26667 66.509 7.064C66.9677 6.85067 67.5063 6.744 68.125 6.744C69.021 6.744 69.741 6.95733 70.285 7.384C70.829 7.81067 71.149 8.41333 71.245 9.192H69.693C69.6503 8.82933 69.4903 8.552 69.213 8.36C68.9357 8.15733 68.5677 8.056 68.109 8.056C67.6503 8.056 67.2983 8.14667 67.053 8.328C66.8077 8.50933 66.685 8.74933 66.685 9.048C66.685 9.24 66.7543 9.41067 66.893 9.56C67.0317 9.70933 67.2343 9.83733 67.501 9.944C67.7783 10.04 68.1143 10.1307 68.509 10.216C69.0743 10.3227 69.581 10.456 70.029 10.616C70.477 10.776 70.8343 11.0107 71.101 11.32C71.3677 11.6293 71.501 12.072 71.501 12.648C71.5117 13.1493 71.3837 13.592 71.117 13.976C70.861 14.36 70.493 14.6587 70.013 14.872C69.5437 15.0853 68.9837 15.192 68.333 15.192ZM77.0329 15.192C76.2649 15.192 75.5822 15.016 74.9849 14.664C74.3875 14.312 73.9182 13.8213 73.5769 13.192C73.2462 12.5627 73.0809 11.832 73.0809 11C73.0809 10.1467 73.2462 9.40533 73.5769 8.776C73.9182 8.136 74.3875 7.64 74.9849 7.288C75.5822 6.92533 76.2755 6.744 77.0649 6.744C77.8542 6.744 78.5315 6.92 79.0969 7.272C79.6622 7.624 80.0995 8.09333 80.4089 8.68C80.7182 9.256 80.8729 9.896 80.8729 10.6C80.8729 10.7067 80.8675 10.824 80.8569 10.952C80.8569 11.0693 80.8515 11.2027 80.8409 11.352H74.2489V10.216H79.2729C79.2409 9.544 79.0169 9.02133 78.6009 8.648C78.1849 8.264 77.6675 8.072 77.0489 8.072C76.6115 8.072 76.2115 8.17333 75.8489 8.376C75.4862 8.568 75.1929 8.856 74.9689 9.24C74.7555 9.61333 74.6489 10.088 74.6489 10.664V11.112C74.6489 11.7093 74.7555 12.216 74.9689 12.632C75.1929 13.0373 75.4862 13.3467 75.8489 13.56C76.2115 13.7627 76.6062 13.864 77.0329 13.864C77.5449 13.864 77.9662 13.752 78.2969 13.528C78.6275 13.304 78.8729 13 79.0329 12.616H80.6329C80.4942 13.1067 80.2595 13.5493 79.9289 13.944C79.5982 14.328 79.1875 14.632 78.6969 14.856C78.2169 15.08 77.6622 15.192 77.0329 15.192ZM88.3763 15L86.0083 6.936H87.5923L89.3523 13.656L89.0483 13.64L91.0003 6.936H92.7923L94.7443 13.64L94.4403 13.656L96.1843 6.936H97.8003L95.4323 15H93.7843L91.7363 8.008H92.0563L90.0083 15H88.3763ZM101.588 15.192C100.927 15.192 100.377 15.08 99.9401 14.856C99.5028 14.632 99.1775 14.3333 98.9641 13.96C98.7508 13.576 98.6441 13.1653 98.6441 12.728C98.6441 12.1947 98.7828 11.7413 99.0601 11.368C99.3375 10.984 99.7321 10.6907 100.244 10.488C100.756 10.2853 101.369 10.184 102.084 10.184H104.18C104.18 9.71467 104.111 9.32533 103.972 9.016C103.833 8.70667 103.625 8.47733 103.348 8.328C103.081 8.168 102.74 8.088 102.324 8.088C101.844 8.088 101.433 8.20533 101.092 8.44C100.751 8.664 100.537 9 100.452 9.448H98.8521C98.9161 8.88267 99.1081 8.40267 99.4281 8.008C99.7588 7.60267 100.18 7.29333 100.692 7.08C101.204 6.856 101.748 6.744 102.324 6.744C103.081 6.744 103.716 6.87733 104.228 7.144C104.74 7.41067 105.124 7.78933 105.38 8.28C105.647 8.76 105.78 9.336 105.78 10.008V15H104.388L104.26 13.64C104.143 13.8533 104.004 14.056 103.844 14.248C103.684 14.44 103.492 14.6053 103.268 14.744C103.055 14.8827 102.804 14.9893 102.516 15.064C102.239 15.1493 101.929 15.192 101.588 15.192ZM101.892 13.896C102.233 13.896 102.543 13.8267 102.82 13.688C103.097 13.5493 103.332 13.3627 103.524 13.128C103.727 12.8827 103.876 12.6107 103.972 12.312C104.079 12.0027 104.137 11.688 104.148 11.368V11.32H102.244C101.785 11.32 101.412 11.3787 101.124 11.496C100.847 11.6027 100.644 11.752 100.516 11.944C100.388 12.136 100.324 12.36 100.324 12.616C100.324 12.8827 100.383 13.112 100.5 13.304C100.628 13.4853 100.809 13.6293 101.044 13.736C101.279 13.8427 101.561 13.896 101.892 13.896ZM107.934 15V6.936H109.534V15H107.934ZM108.75 5.416C108.441 5.416 108.185 5.32 107.982 5.128C107.79 4.936 107.694 4.69067 107.694 4.392C107.694 4.104 107.79 3.86933 107.982 3.688C108.185 3.496 108.441 3.4 108.75 3.4C109.049 3.4 109.3 3.496 109.502 3.688C109.705 3.86933 109.806 4.104 109.806 4.392C109.806 4.69067 109.705 4.936 109.502 5.128C109.3 5.32 109.049 5.416 108.75 5.416ZM115.15 15C114.638 15 114.196 14.92 113.822 14.76C113.449 14.6 113.161 14.3333 112.958 13.96C112.756 13.5867 112.654 13.08 112.654 12.44V8.296H111.262V6.936H112.654L112.846 4.92H114.254V6.936H116.542V8.296H114.254V12.456C114.254 12.9147 114.35 13.2293 114.542 13.4C114.734 13.56 115.065 13.64 115.534 13.64H116.462V15H115.15ZM118.947 15.08C118.637 15.08 118.381 14.984 118.179 14.792C117.987 14.5893 117.891 14.3493 117.891 14.072C117.891 13.784 117.987 13.544 118.179 13.352C118.381 13.1493 118.637 13.048 118.947 13.048C119.256 13.048 119.507 13.1493 119.699 13.352C119.891 13.544 119.987 13.784 119.987 14.072C119.987 14.3493 119.891 14.5893 119.699 14.792C119.507 14.984 119.256 15.08 118.947 15.08ZM122.384 15.08C122.075 15.08 121.819 14.984 121.616 14.792C121.424 14.5893 121.328 14.3493 121.328 14.072C121.328 13.784 121.424 13.544 121.616 13.352C121.819 13.1493 122.075 13.048 122.384 13.048C122.694 13.048 122.944 13.1493 123.136 13.352C123.328 13.544 123.424 13.784 123.424 14.072C123.424 14.3493 123.328 14.5893 123.136 14.792C122.944 14.984 122.694 15.08 122.384 15.08ZM125.822 15.08C125.512 15.08 125.256 14.984 125.054 14.792C124.862 14.5893 124.766 14.3493 124.766 14.072C124.766 13.784 124.862 13.544 125.054 13.352C125.256 13.1493 125.512 13.048 125.822 13.048C126.131 13.048 126.382 13.1493 126.574 13.352C126.766 13.544 126.862 13.784 126.862 14.072C126.862 14.3493 126.766 14.5893 126.574 14.792C126.382 14.984 126.131 15.08 125.822 15.08Z" fill="black" fill-opacity="0.32"/>
</svg>

<svg xmlns="http://www.w3.org/2000/svg" width="128" height="20" fill="none"><path fill="#000" fill-opacity=".32" fill-rule="evenodd" d="M8.168 11.369a1.884 1.884 0 0 0 0-2.738L8.06 8.53C6.045 6.605 4.488 5.12 4.02 2.007 3.852.91 4.792 0 5.924 0h9.15c1.131 0 2.072.91 1.906 2.007-.47 3.113-2.026 4.598-4.041 6.522l-.107.102a1.884 1.884 0 0 0 0 2.738l.107.102c2.015 1.924 3.572 3.409 4.04 6.522.167 1.097-.774 2.007-1.905 2.007h-9.15c-1.132 0-2.072-.91-1.906-2.007.47-3.113 2.026-4.598 4.041-6.522zm.683 1.697-.008.007c-1.535 1.373-2.678 2.395-2.827 4.923a.47.47 0 0 0 .168.388.5.5 0 0 0 .32.116h7.992c.144 0 .274-.06.363-.158a.47.47 0 0 0 .124-.346c-.149-2.528-1.291-3.55-2.826-4.923-.407-.363-.84-.751-1.29-1.198a.523.523 0 0 0-.735 0c-.447.444-.878.83-1.281 1.191" clip-rule="evenodd"/><path fill="#000" fill-opacity=".32" d="M33.088 18.52V6.936h1.44l.16 1.248q.255-.368.64-.688a3.1 3.1 0 0 1 .912-.544q.544-.208 1.264-.208 1.152 0 2.016.56.88.56 1.36 1.52.495.945.496 2.16 0 1.216-.496 2.176a3.8 3.8 0 0 1-1.376 1.488q-.864.544-2.016.544-.945 0-1.664-.368a2.93 2.93 0 0 1-1.136-1.056v4.752zm4.144-4.72a2.38 2.38 0 0 0 2.192-1.344q.336-.64.336-1.488t-.336-1.472a2.4 2.4 0 0 0-.896-.992 2.3 2.3 0 0 0-1.296-.368q-.752 0-1.328.368a2.4 2.4 0 0 0-.88.992q-.32.624-.32 1.472t.32 1.488.88.992q.576.352 1.328.352m6.012 1.2V3.48h1.6V15zm7.445.192q-1.151 0-2.048-.528a3.74 3.74 0 0 1-1.408-1.472q-.495-.944-.496-2.192 0-1.28.496-2.224.512-.96 1.408-1.488.896-.544 2.08-.544t2.032.528a3.6 3.6 0 0 1 1.312 1.408q.465.864.464 1.92 0 .16-.016.352 0 .175-.016.4h-6.592v-1.136h5.024q-.048-1.008-.672-1.568-.624-.576-1.552-.576-.656 0-1.2.304-.544.288-.88.864-.32.56-.32 1.424v.448q0 .896.32 1.52.336.608.88.928.545.304 1.184.304.769 0 1.264-.336t.736-.912h1.6q-.208.735-.704 1.328a3.5 3.5 0 0 1-1.232.912q-.72.336-1.664.336m8.29 0q-.992 0-1.648-.336-.657-.336-.976-.896a2.5 2.5 0 0 1-.32-1.232q0-.8.416-1.36.416-.576 1.184-.88t1.84-.304h2.096q0-.705-.208-1.168a1.4 1.4 0 0 0-.624-.688q-.4-.24-1.024-.24-.72 0-1.232.352-.513.336-.64 1.008h-1.6q.096-.848.576-1.44.495-.608 1.264-.928a4 4 0 0 1 1.632-.336q1.136 0 1.904.4T62.77 8.28q.4.72.4 1.728V15h-1.392l-.128-1.36a4 4 0 0 1-.416.608 2.4 2.4 0 0 1-.576.496 2.5 2.5 0 0 1-.752.32 3.2 3.2 0 0 1-.928.128m.304-1.296q.511 0 .928-.208.416-.208.704-.56.303-.367.448-.816.16-.464.176-.944v-.048h-1.904q-.688 0-1.12.176-.417.16-.608.448a1.2 1.2 0 0 0-.192.672q0 .4.176.688.192.271.544.432.351.16.848.16m9.05 1.296q-1.024 0-1.792-.336a2.93 2.93 0 0 1-1.216-.944 2.93 2.93 0 0 1-.544-1.424h1.632q.08.383.304.704.24.32.64.512.416.192.976.192.528 0 .864-.144.352-.16.512-.416.16-.271.16-.576 0-.448-.224-.672-.208-.24-.64-.368a7 7 0 0 0-1.008-.256 9 9 0 0 1-1.088-.256 4.6 4.6 0 0 1-.928-.432 2 2 0 0 1-.64-.64q-.24-.4-.24-.976 0-.689.368-1.232a2.4 2.4 0 0 1 1.04-.864q.688-.32 1.616-.32 1.344 0 2.16.64t.96 1.808h-1.552q-.064-.544-.48-.832-.415-.304-1.104-.304-.688 0-1.056.272a.85.85 0 0 0-.368.72q0 .288.208.512t.608.384q.416.144 1.008.272.848.16 1.52.4t1.072.704.4 1.328q.016.752-.384 1.328-.384.576-1.104.896-.705.32-1.68.32m8.7 0q-1.151 0-2.048-.528a3.74 3.74 0 0 1-1.408-1.472q-.495-.944-.496-2.192 0-1.28.496-2.224.511-.96 1.408-1.488.895-.544 2.08-.544 1.184 0 2.032.528a3.6 3.6 0 0 1 1.312 1.408q.464.864.464 1.92 0 .16-.016.352 0 .175-.016.4h-6.592v-1.136h5.024q-.048-1.008-.672-1.568-.624-.576-1.552-.576-.656 0-1.2.304-.544.288-.88.864-.32.56-.32 1.424v.448q0 .896.32 1.52.336.608.88.928.543.304 1.184.304.768 0 1.264-.336.495-.336.736-.912h1.6a3.55 3.55 0 0 1-.704 1.328q-.496.576-1.232.912-.72.336-1.664.336M88.376 15l-2.368-8.064h1.584l1.76 6.72-.304-.016L91 6.936h1.792l1.952 6.704-.304.016 1.744-6.72H97.8L95.432 15h-1.648l-2.048-6.992h.32L90.008 15zm13.212.192q-.992 0-1.648-.336t-.976-.896a2.5 2.5 0 0 1-.32-1.232q0-.8.416-1.36.417-.576 1.184-.88.768-.304 1.84-.304h2.096q0-.705-.208-1.168a1.4 1.4 0 0 0-.624-.688q-.4-.24-1.024-.24-.72 0-1.232.352-.512.336-.64 1.008h-1.6q.096-.848.576-1.44.495-.608 1.264-.928a4 4 0 0 1 1.632-.336q1.136 0 1.904.4t1.152 1.136q.4.72.4 1.728V15h-1.392l-.128-1.36a4 4 0 0 1-.416.608 2.4 2.4 0 0 1-.576.496 2.5 2.5 0 0 1-.752.32 3.2 3.2 0 0 1-.928.128m.304-1.296q.512 0 .928-.208a2.1 2.1 0 0 0 .704-.56 2.4 2.4 0 0 0 .448-.816q.16-.464.176-.944v-.048h-1.904q-.688 0-1.12.176-.416.16-.608.448a1.2 1.2 0 0 0-.192.672q0 .4.176.688.192.271.544.432t.848.16M107.934 15V6.936h1.6V15zm.816-9.584q-.464 0-.768-.288a1 1 0 0 1-.288-.736q0-.432.288-.704.304-.288.768-.288.449 0 .752.288a.9.9 0 0 1 .304.704.97.97 0 0 1-.304.736 1.05 1.05 0 0 1-.752.288m6.4 9.584q-.768 0-1.328-.24a1.75 1.75 0 0 1-.864-.8q-.303-.56-.304-1.52V8.296h-1.392v-1.36h1.392l.192-2.016h1.408v2.016h2.288v1.36h-2.288v4.16q0 .688.288.944.288.24.992.24h.928V15zm3.797.08a1.07 1.07 0 0 1-.768-.288 1.01 1.01 0 0 1-.288-.72q0-.432.288-.72.303-.304.768-.304.464 0 .752.304a.98.98 0 0 1 .288.72q0 .415-.288.72-.288.288-.752.288m3.437 0q-.463 0-.768-.288a1.01 1.01 0 0 1-.288-.72q0-.432.288-.72.305-.304.768-.304.465 0 .752.304a.98.98 0 0 1 .288.72q0 .415-.288.72-.287.288-.752.288m3.438 0a1.07 1.07 0 0 1-.768-.288 1.01 1.01 0 0 1-.288-.72q0-.432.288-.72.303-.304.768-.304.464 0 .752.304a.98.98 0 0 1 .288.72q0 .415-.288.72-.288.288-.752.288"/></svg>
